X:115
T: Who'll Come Fight in the Snow
S: "Collection of the Dance Music of Ireland" (P. McNulty)
Z: B.Black
L: 1/8
M: 9/8
R: slip jig
K: D
d2 A F2 A F2 A|d2 A F2 A GFE|d2 A F2 A F2 A|\
ABA GFE D3 :|
A3 B3 c3 | Bdc BA^G A3 |d3 e3 f3|egf edc d3 :|
